svg/floor-lamp-dual.svg

<?xml version="1.0" encoding="UTF-8"?>
<!DOCTYPE svg PUBLIC "-//W3C//DTD SVG 1.1//EN" "http://www.w3.org/Graphics/SVG/1.1/DTD/svg11.dtd">
<svg xmlns="http://www.w3.org/2000/svg" xmlns:xlink="http://www.w3.org/1999/xlink" version="1.1"  width="24" height="24" viewBox="0 0 24 24">
    <path fill="#000000" d="M 9.3867188 2 L 3 6.8125 L 9.2070312 10.898438 L 11.601562 9.09375 L 9.3867188 2 z M 14.613281 2 L 12.398438 9.0917969 L 14.792969 10.898438 L 21 6.8125 L 14.613281 2 z M 11.726562 10.054688 L 10.167969 11.244141 L 11 12.199219 L 11 20 L 8 20 L 8 22 L 16 22 L 16 20 L 13 20 L 13 12.300781 L 13.851562 11.261719 L 12.265625 10.064453 L 11.726562 10.054688 z " />
</svg>

<?xml version="1.0" encoding="UTF-8"?>
<!DOCTYPE svg PUBLIC "-//W3C//DTD SVG 1.1//EN" "http://www.w3.org/Graphics/SVG/1.1/DTD/svg11.dtd">
<svg xmlns="http://www.w3.org/2000/svg" xmlns:xlink="http://www.w3.org/1999/xlink" version="1.1"  width="24" height="24" viewBox="0 0 24 24">
<path d="m9.3867 2l-6.3867 4.8125 6.207 4.0859 2.3945-1.8047-2.2148-7.0938zm5.2266 0l-2.2148 7.0918 2.3945 1.8066 6.207-4.0859-6.3867-4.8125zm-2.8867 8.0547l-1.5586 1.1895 0.83203 0.95508v7.8008h-3v2h8v-2h-3v-7.6992l0.85156-1.0391-1.5859-1.1973-0.53906-0.009765z"/>
</svg>
